!!!SOCIAL_FUNCTION:	songs with treatment of the sick
!!!PDT:	1956
!!!OTL: No_205_Song_for_Bringing_a_Child_into_the_World.krn
!!!LANG: Non-Tone
!!!LING_GROUP: Muskogean
!!!REG: Florida
**kern
*staff1
*clefG2
*k[]
*M2/4
4r
8g/
=1!|:
4g/
8.g/L
16d/Jk
=2
[2g/
=3
4g/]
8.d/L
16e/Jk
=4
4d/
8.c/L
16G/Jk
=5||
*M3/4
(2c/
8.A/L)
16G/Jk
=6||
*M2/4
4G/
8.A/L
16G/Jk
=7||
*M3/4
2G/
8r
8f/
=8||
*M2/4
4d/
8.d/L
16d/Jk
=9
8.B/L
16G/Jk
8.G/L
16e/Jk
=10||
*M3/4
8.d/L
16e/Jk
4d/
8.A/L
16G/Jk
=11||
*M5/8
[2G/
16G/LL]
16G/JJ
=12||
*M2/4
4G/
8.A/L
16G/Jk
=13||
*M3/4
2G/
8r
8d/
=14:|!
2G/
==
*-
